symbolic/24x24/actions/username-copy.svg

<svg xmlns="http://www.w3.org/2000/svg" width="24" height="24"><defs><style id="current-color-scheme" type="text/css"></style></defs><path style="fill:currentColor;color:#323a41" d="M11 5a3 3 0 0 1-3 3 3 3 0 0 1-3-3 3 3 0 0 1 3-3 3 3 0 0 1 3 3zM8 9c-6 0-6 4-6 4v1h12v-1s0-4-6-4z" transform="translate(4 4)"/></svg>

<svg xmlns="http://www.w3.org/2000/svg" width="24" height="24" version="1.1">
 <defs>
  <style id="current-color-scheme" type="text/css">
   .ColorScheme-Text { color:#323a41; } .ColorScheme-Highlight { color:#4285f4; } .ColorScheme-NeutralText { color:#ff9800; } .ColorScheme-PositiveText { color:#4caf50; } .ColorScheme-NegativeText { color:#f44336; }
  </style>
 </defs>
 <g transform="translate(4,4)">
  <path style="fill:currentColor" class="ColorScheme-Text" d="M 11,5 A 3,3 0 0 1 8,8 3,3 0 0 1 5,5 3,3 0 0 1 8,2 3,3 0 0 1 11,5 Z M 8,9 C 2,9 2,13 2,13 V 14 H 14 V 13 C 14,13 14,9 8,9 Z"/>
 </g>
</svg>
